img/instagram.svg

<svg width="64" height="64" viewBox="0 0 64 64" fill="none" xmlns="http://www.w3.org/2000/svg">
<circle cx="31.7739" cy="31.6782" r="31.6782" fill="url(#paint0_linear)"/>
<path d="M42.1972 19.007H22.9344C20.7596 19.007 19.1026 20.664 19.1026 22.8388V42.1016C19.1026 44.2764 20.7596 45.9334 22.9344 45.9334H42.1972C44.372 45.9334 46.029 44.2764 46.029 42.1016V22.8388C46.029 20.664 44.372 19.007 42.1972 19.007ZM32.5658 40.5481C37.019 40.5481 40.6437 37.027 40.6437 32.7809C40.6437 32.0559 40.5402 31.2274 40.3331 30.6061H42.6114V41.5838C42.6114 42.1016 42.1972 42.6194 41.5758 42.6194H23.5558C23.038 42.6194 22.5202 42.2051 22.5202 41.5838V30.5025H24.9021C24.695 31.2274 24.5914 31.9524 24.5914 32.6773C24.4879 37.027 28.1126 40.5481 32.5658 40.5481ZM32.5658 37.4412C29.666 37.4412 27.3876 35.1628 27.3876 32.3666C27.3876 29.5704 29.666 27.292 32.5658 27.292C35.4656 27.292 37.744 29.5704 37.744 32.3666C37.744 35.2664 35.4656 37.4412 32.5658 37.4412ZM42.5079 26.36C42.5079 26.9813 41.9901 27.4992 41.3687 27.4992H38.4689C37.8475 27.4992 37.3297 26.9813 37.3297 26.36V23.5637C37.3297 22.9424 37.8475 22.4245 38.4689 22.4245H41.3687C41.9901 22.4245 42.5079 22.9424 42.5079 23.5637V26.36Z" fill="white"/>
<defs>
<linearGradient id="paint0_linear" x1="13.5589" y1="56.2288" x2="55.5325" y2="12.6713" gradientUnits="userSpaceOnUse">
<stop stop-color="#EEA054"/>
<stop offset="0.502762" stop-color="#D64763"/>
<stop offset="1" stop-color="#B62A99"/>
</linearGradient>
</defs>
</svg>

<svg width="64" height="64" fill="none" xmlns="http://www.w3.org/2000/svg"><circle cx="31.774" cy="31.678" r="31.678" fill="url(#paint0_linear)"/><path d="M42.197 19.007H22.934c-2.174 0-3.831 1.657-3.831 3.832v19.263c0 2.174 1.657 3.831 3.831 3.831h19.263c2.175 0 3.832-1.657 3.832-3.831V22.839c0-2.175-1.657-3.832-3.832-3.832zm-9.631 21.541c4.453 0 8.078-3.521 8.078-7.767 0-.725-.104-1.554-.31-2.175h2.277v10.978c0 .518-.414 1.035-1.035 1.035h-18.02a1.038 1.038 0 01-1.036-1.035V30.502h2.382a7.885 7.885 0 00-.31 2.175c-.104 4.35 3.52 7.871 7.974 7.871zm0-3.107c-2.9 0-5.178-2.278-5.178-5.074 0-2.797 2.278-5.075 5.178-5.075s5.178 2.278 5.178 5.075c0 2.9-2.278 5.074-5.178 5.074zm9.942-11.081a1.15 1.15 0 01-1.14 1.14h-2.9a1.15 1.15 0 01-1.138-1.14v-2.796c0-.622.517-1.14 1.139-1.14h2.9c.621 0 1.139.518 1.139 1.14v2.796z" fill="#fff"/><defs><linearGradient id="paint0_linear" x1="13.559" y1="56.229" x2="55.532" y2="12.671" gradientUnits="userSpaceOnUse"><stop stop-color="#EEA054"/><stop offset=".503" stop-color="#D64763"/><stop offset="1" stop-color="#B62A99"/></linearGradient></defs></svg>
